X:1
T:Title
%%score { ( 1 3 ) | ( 2 4 ) }
L:1/8
M:4/4
K:A
V:1 treble nm="Grand Piano"
V:3 treble 
V:2 bass 
V:4 bass 
V:1
 z4 z2[Q:1/4=100] [CE]>[CE] | [CA]2 [CA]>[CA] [CA]>[DG] [EA]>[FB] | [Ec]2 [DB]2 [A,CA]2 G>A | %3
 B6 z2 | c6[K:bass] z2 | [CA]2 [CA]>[CA] [CA]>[DG] [EA]>[FB] | [Ec]2 [DB]2 [A,CA]2 G>A | B6 z2 | %8
 A6 z2 | F2 F>F F>A [A,EG]>[A,DF] | [CE]>[DF] [CE]>[A,C] [CE]>[EA] [DG]>[CA] | B2 B>B B2 [EA]>B | %12
 c>c d>c c<B A>B | c2 c>d e2 e>c | [Fd]2 [Fd]2 [DF]2 [EA]>[FB] | %15
[M:35/32] c3/2-c/4- c4- c/4c-(3:2:4c3/2-c/4B3/4-B/8 |[M:3/4] [CA]6 |] %17
V:2
 z4 z2 [A,,A,]>[A,,A,] | [A,,A,]2 [A,,A,]>[A,,A,] [A,,A,]>[B,,E,] [C,A,]>[D,A,] | %2
 [E,A,]2 [E,G,]2 A,,2 B,>C | D6 z2 | E6 z2 | %5
 [A,,A,]2 [A,,A,]>[A,,A,] [A,,A,]>[B,,E,] [C,A,]>[D,A,] | [E,A,]2 [E,G,]2 A,,2 B,>C | D6 z2 | %8
 C6 z2 | z4 D2 z2 | [A,,A,]>[A,,A,] [A,,A,]>[A,,E,] [A,,A,]>[C,A,] [B,,E,]>[A,,A,] | %11
 [E,G,E]2 [E,G,E]>[E,G,E] [E,G,E]2 [C,A,]>[E,G,E] | %12
 [A,E]>[A,E] [A,F]>[K:bass][A,E] [E,A,E]<[E,G,E] [A,C]>[A,D] | %13
 [A,E]2 [A,E]>[A,B,E] [A,CA]2 [A,CA]>[A,E=G] | [D,D]2 [D,A,]2 [D,A,]2 [C,A,]>[D,A,] | %15
[M:35/32] [E,A,E]3/2-[E,A,E]/4- [E,A,E]4- [E,A,E]/4[E,G,E]-(3:2:4[E,G,E]3/2-[E,G,E]/4[E,G,D]3/4-[E,G,D]/8 | %16
[M:3/4] [A,,A,]6 |] %17
V:3
 x8 | x8 | x8 | z2 G,>G, G,2 A>B | z2[K:bass] A,>A, A,2 [CE]>[CE] | x8 | x8 | z2 G,>G, G,2 c>B | %8
 z2 A,>A, A,2 [A,CA]>[A,EG] | x8 | x8 | x8 | x8 | x8 | x8 |[M:35/32] x35/4 |[M:3/4] x6 |] %17
V:4
 x8 | x8 | x8 | z2 E,>E, E,2 C>D | z2 A,,>A,, A,,2 [A,,A,]>[A,,A,] | x8 | x8 | z2 E,>E, E,2 E>D | %8
 z2 A,,>A,, A,,2 A,,>C, | [D,A,D]2 [D,A,D]>[D,A,D] [D,A,]->[D,A,F] D,>D, | x8 | x8 | %12
 x7/2[K:bass] x9/2 | x8 | x8 |[M:35/32] x35/4 |[M:3/4] x6 |] %17

